X: 1
T: O Savinao
M: 2/4
L: 1/8
R: polka
K: Gmaj
dd GG|dd GG|G/A/B/c/ dB/B/|BA BG
dd GG|dd GG|G/A/B/c/ dB/B/|BA G2:|
G/A/B/c/ d>e|d>e d/B/B|B>A B<c|AA G<A|BG G 
G/A/B/c/ d>e|d>e d/B/B|B>A B<c|Ac/A/G/F/G:|
